src/images/spritesheet.svg

<?xml version="1.0"?>
<svg width="600" height="60" xmlns="http://www.w3.org/2000/svg">
 <!-- Pencil from view-source:https://upload.wikimedia.org/wikipedia/commons/a/ac/Black_pencil.svg -->

 <g>
  <title>background</title>
  <rect fill="none" id="canvas_background" height="402" width="582" y="-1" x="-1"/>
 </g>
 <g>
  <title>Layer 1</title>
  <g id="svg_1">
   <path fill="#464646" d="m18,36l0,6l6,0l0,-6l-6,0zm4,4l-2,0l0,-2l2,0l0,2z" id="svg_2"/>
   <path fill="#464646" d="m36,18l0,6l6,0l0,-6l-6,0zm4,4l-2,0l0,-2l2,0l0,2z" id="svg_3"/>
   <polygon fill="#464646" points="23.142,39.145 20.857,36.854 36.857,20.857 39.142,23.142  " id="svg_4"/>
  </g>
  <polygon fill="#464646" points="83.07,42 76,28.773 86.463,18 100,24.565 97.904,39.396 " id="svg_5"/>
  <rect x="140" y="20" fill="#464646" width="20" height="20" id="svg_6"/>
  <path fill="#464646" d="m221,30c0,6.077999 -4.925995,11 -11,11s-11,-4.922001 -11,-11c0,-6.073999 4.925995,-11 11,-11s11,4.926001 11,11z" id="svg_7"/>
  <path fill="#464646" d="m270,19c-4.971008,0 -9,4.028999 -9,9c0,4.971001 5.001007,12 9,14c4.001007,-2 9,-9.028999 9,-14c0,-4.971001 -4.028992,-9 -9,-9zm0,12.5c-2.484009,0 -4.5,-2.014 -4.5,-4.5c0,-2.483999 2.015991,-4.5 4.5,-4.5c2.484985,0 4.5,2.016001 4.5,4.5c0,2.486 -2.015015,4.5 -4.5,4.5z" id="svg_8"/>
  <g id="svg_9">
   <path fill="#464646" d="m337,30.156l0,0.407l0,5.604c0,1.658001 -1.343994,3 -3,3l-10,0c-1.654999,0 -3,-1.341999 -3,-3l0,-10c0,-1.657 1.345001,-3 3,-3l6.345001,0l3.190002,-3.17l-9.535004,0c-3.312988,0 -6,2.687 -6,6l0,10.000002c0,3.313 2.687012,6 6,6l10,0c3.313995,0 6,-2.687 6,-6l0,-8.809002l-3,2.968" id="svg_10"/>
   <polygon fill="#464646" points="329.828,33.529 327,33.529 327,30.699 335.891,21.809 338.719,24.637  " id="svg_11"/>
   <rect x="338.697" y="17.826" transform="matrix(-0.707 -0.7072 0.7072 -0.707 567.5655 274.7729)" fill="#464646" width="4" height="4" id="svg_12"/>
  </g>
  <g id="svg_13">
   <path fill="#464646" d="m381,42l18,0l0,-18l-18,0l0,18zm14,-16l2,0l0,14l-2,0l0,-14zm-4,0l2,0l0,14l-2,0l0,-14zm-4,0l2,0l0,14l-2,0l0,-14zm-4,0l2,0l0,14l-2,0l0,-14z" id="svg_14"/>
   <path fill="#464646" d="m395,20l0,-2l0,-2l-10,0l0,2l0,2l-6,0l0,2l22,0l0,-2l-6,0zm-2,0l-6,0l0,-2l6,0l0,2z" id="svg_15"/>
  </g>
  <g id="svg_16">
   <path fill="#BBBBBB" d="m458,30.156l0,0.407l0,5.604c0,1.658001 -1.343994,3 -3,3l-10,0c-1.654999,0 -3,-1.341999 -3,-3l0,-10c0,-1.657 1.345001,-3 3,-3l6.345001,0l3.190002,-3.17l-9.535004,0c-3.312988,0 -6,2.687 -6,6l0,10.000002c0,3.313 2.687012,6 6,6l10,0c3.313995,0 6,-2.687 6,-6l0,-8.809002l-3,2.968" id="svg_17"/>
   <polygon fill="#BBBBBB" points="450.828,33.529 448,33.529 448,30.699 456.891,21.809 459.719,24.637  " id="svg_18"/>
   <rect x="459.697" y="17.826" transform="matrix(-0.707 -0.7072 0.7072 -0.707 774.118 360.3402)" fill="#BBBBBB" width="4" height="4" id="svg_19"/>
  </g>
  <g id="svg_20">
   <path fill="#BBBBBB" d="m501,42l18,0l0,-18l-18,0l0,18zm14,-16l2,0l0,14l-2,0l0,-14zm-4,0l2,0l0,14l-2,0l0,-14zm-4,0l2,0l0,14l-2,0l0,-14zm-4,0l2,0l0,14l-2,0l0,-14z" id="svg_21"/>
   <path fill="#BBBBBB" d="m515,20l0,-2l0,-2l-10,0l0,2l0,2l-6,0l0,2l22,0l0,-2l-6,0zm-2,0l-6,0l0,-2l6,0l0,2z" id="svg_22"/>
  </g>
  <g id="g3765" fill="none" stroke="#464646">
   <path id="rect2990" d="m552.13269,34.784531l17.695068,-17.694571l5.086243,5.08626l-17.69458,17.695042l-6.125427,1.038708l1.038696,-6.125439z"/>
   <path id="path3771" d="m552.156555,34.569889l5.229553,5.2295"/>
   <path id="path3777" d="m572.056274,19.93993l-17.336609,17.336189"/>
   <path id="path3763" d="m551.383667,38.798981l1.937317,1.86969"/>
  </g>
 </g>
</svg>

<?xml version="1.0" encoding="utf-8"?>
<!-- Generator: Adobe Illustrator 15.0.0, SVG Export Plug-In . SVG Version: 6.00 Build 0)  -->
<!DOCTYPE svg PUBLIC "-//W3C//DTD SVG 1.1//EN" "http://www.w3.org/Graphics/SVG/1.1/DTD/svg11.dtd">
<svg version="1.1" id="Layer_1" xmlns="http://www.w3.org/2000/svg" xmlns:xlink="http://www.w3.org/1999/xlink" x="0px" y="0px"
	 width="540px" height="60px" viewBox="0 0 540 60" enable-background="new 0 0 540 60" xml:space="preserve">
<g>
	<path fill="#464646" d="M18,36v6h6v-6H18z M22,40h-2v-2h2V40z"/>
	<path fill="#464646" d="M36,18v6h6v-6H36z M40,22h-2v-2h2V22z"/>
	<polygon fill="#464646" points="23.142,39.145 20.857,36.854 36.857,20.857 39.142,23.142 	"/>
</g>
<polygon fill="#464646" points="83.07,42 76,28.773 86.463,18 100,24.565 97.904,39.396 "/>
<rect x="140" y="20" fill="#464646" width="20" height="20"/>
<path fill="#464646" d="M221,30c0,6.078-4.926,11-11,11s-11-4.922-11-11c0-6.074,4.926-11,11-11S221,23.926,221,30z"/>
<path fill="#464646" d="M270,19c-4.971,0-9,4.029-9,9c0,4.971,5.001,12,9,14c4.001-2,9-9.029,9-14C279,23.029,274.971,19,270,19z
	 M270,31.5c-2.484,0-4.5-2.014-4.5-4.5c0-2.484,2.016-4.5,4.5-4.5c2.485,0,4.5,2.016,4.5,4.5C274.5,29.486,272.485,31.5,270,31.5z"
	/>
<g>
	<path fill="#464646" d="M337,30.156v0.407v5.604c0,1.658-1.344,3-3,3h-10c-1.655,0-3-1.342-3-3v-10c0-1.657,1.345-3,3-3h6.345
		l3.19-3.17H324c-3.313,0-6,2.687-6,6v10c0,3.313,2.687,6,6,6h10c3.314,0,6-2.687,6-6v-8.809L337,30.156"/>
	<polygon fill="#464646" points="329.828,33.529 327,33.529 327,30.699 335.891,21.809 338.719,24.637 	"/>
	
		<rect x="338.697" y="17.826" transform="matrix(-0.707 -0.7072 0.7072 -0.707 567.5655 274.7729)" fill="#464646" width="4" height="4"/>
</g>
<g>
	<path fill="#464646" d="M381,42h18V24h-18V42z M395,26h2v14h-2V26z M391,26h2v14h-2V26z M387,26h2v14h-2V26z M383,26h2v14h-2V26z"
		/>
	<path fill="#464646" d="M395,20v-2v-2h-10v2v2h-6v2h22v-2H395z M393,20h-6v-2h6V20z"/>
</g>
<g>
	<path fill="#BBBBBB" d="M458,30.156v0.407v5.604c0,1.658-1.344,3-3,3h-10c-1.655,0-3-1.342-3-3v-10c0-1.657,1.345-3,3-3h6.345
		l3.19-3.17H445c-3.313,0-6,2.687-6,6v10c0,3.313,2.687,6,6,6h10c3.314,0,6-2.687,6-6v-8.809L458,30.156"/>
	<polygon fill="#BBBBBB" points="450.828,33.529 448,33.529 448,30.699 456.891,21.809 459.719,24.637 	"/>
	
		<rect x="459.697" y="17.826" transform="matrix(-0.707 -0.7072 0.7072 -0.707 774.118 360.3402)" fill="#BBBBBB" width="4" height="4"/>
</g>
<g>
	<path fill="#BBBBBB" d="M501,42h18V24h-18V42z M515,26h2v14h-2V26z M511,26h2v14h-2V26z M507,26h2v14h-2V26z M503,26h2v14h-2V26z"
		/>
	<path fill="#BBBBBB" d="M515,20v-2v-2h-10v2v2h-6v2h22v-2H515z M513,20h-6v-2h6V20z"/>
</g>

<!-- Pencil from view-source:https://upload.wikimedia.org/wikipedia/commons/a/ac/Black_pencil.svg -->
<g id="g3765" stroke="#000000" fill="none">
   <path id="rect2990" d="m70.064 422.35 374.27-374.26 107.58 107.58-374.26 374.27-129.56 21.97z" stroke-width="30"/>
   <path id="path3771" d="m70.569 417.81 110.61 110.61" stroke-width="25"/>
   <path id="path3777" d="m491.47 108.37-366.69 366.68" stroke-width="25"/>
   <path id="path3763" d="m54.222 507.26 40.975 39.546" stroke-width="25"/>
  </g>
</svg>
